X: 3173
Q: "Strathspey."
M: C
L: 1/8
K: Bb
E>BD>B C<EE>G | F<B B/c/d/c/ B2-B |]\
g |\
f>Bd>f g/f/e/d/ c<g | f>Bd>B F<B G/F/E/D/ |\
(3EGE (3DFD C>DE>G  |
f>Bd>f g/f/e/d/ c<g | (3fBd (3fga (3bag (3fed |\
(3efg (3fed c>Bc>d | F<B B/c/d/c/ B2-B |]


